X:1
T:Etude op. 21 no 11
T:Etude op. 21 no 11
T:Joachim Andersen
C:Joachim Andersen
L:1/8
Q:3/8=30
M:3/8
K:B
V:1 treble nm="Flûte" snm="Fl."
V:1
"^Allegretto"!f! (B/4B/4d/4f/4 b/4d/4f/4b/4 a/4d/4f/4a/4 | %1
 g/4B/4d/4f/4 ^e/4f/4g/4f/4 d/4B/4A/4G/4 | F/4)(B/4d/4f/4 b/4d/4f/4b/4 a/4d/4f/4a/4 | %3
 g/4B/4d/4f/4 ^e/4f/4g/4f/4 d/4f/4b/4c'/4 | d'/4)(b/4a/4g/4 f/4d/4B/4F/4) .^^c'/4(a/4g/4f/4) | %5
 .d'/4(b/4c'/4b/4) .e'/4(b/4c'/4b/4) .f'/4(b/4c'/4b/4) | %6
 .^^f'/4(d'/4c'/4b/4 a/4b/4c'/4b/4) .g'/4(e'/4c'/4b/4 | %7
!>(! a/4b/4c'/4b/4) .=g'/4(d'/4e'/4d'/4) .f'/4(^b/4c'/4b/4)!>)! | %8
!p! (e'/4c'/4g/4e/4 c/4g/4e/4c/4 d/4g/4f/4d/4 | e/4c'/4g/4f/4 ^^f/4g/4=a/4g/4 e/4g/4c'/4d'/4 | %10
 e'/4)(c'/4g/4e/4 c/4g/4e/4c/4 d/4g/4f/4d/4 | e/4c'/4g/4f/4 ^^f/4g/4=a/4g/4 e/4g/4e/4c/4 | %12
 B/4)(c/4e/4g/4 b/4c'/4e'/4g'/4) .A/4(c/4e/4f/4) | %13
 .G/4(B/4e/4f/4) .=G/4(B/4e/4f/4) .F/4(A/4^e/4f/4 | %14
 g/4f/4)"_cresc."(D/4F/4 c/4B/4)(F/4B/4 e/4d/4)!<(!(B/4d/4 | %15
 g/4f/4)(d/4f/4 c'/4b/4)(f/4b/4 e'/4d'/4b/4f/4!<)! | %16
!mf! d'/4)(c'/4a/4f/4 e/4c/4A/4F/4) .c'/4(a/4f/4e/4) | %17
 .c'/4(b/4f/4d/4) .b/4(f/4d/4B/4) (g/4f/4d/4f/4 | a/4)(g/4f/4e/4 c/4A/4G/4F/4) .g/4(f/4e/4c/4) | %19
 .g/4(f/4d/4B/4) .f/4(d/4B/4F/4) (B/4d/4f/4b/4 | c'/4)(b/4g/4e/4 c/4B/4G/4E/4) (.b/4g/4f/4e/4) | %21
 .c'/4(b/4f/4d/4 c/4B/4F/4D/4)!>(! .b/4(f/4e/4d/4) | %22
 .b/4(a/4g/4^e/4 ^^c/4B/4^^G/4A/4 c/4e/4^^g/4!>)!a/4 | b/4)(a/4f/4d/4 B/4A/4F/4G/4 A/4d/4f/4a/4 | %24
!mf! d'/4)(c'/4a/4f/4 e/4c/4A/4F/4) .c'/4(a/4f/4e/4) | %25
 .c'/4(b/4f/4d/4) .b/4(f/4d/4B/4) (g/4f/4d/4f/4 | %26
 a/4)(g/4f/4e/4 c/4A/4G/4F/4)!<(! .g/4(f/4e/4c/4) | %27
 .g/4(f/4d/4B/4) .f/4!<)!(d/4B/4F/4 B/4d/4f/4b/4) | %28
!f! (=D/4=G/4B/4=d/4 =g/4=a/4^a/4b/4) (b/4=a/4=c'/4e'/4) | %29
 (e'/4=d'/4b/4=g/4 e/4=d/4B/4=G/4 F/4=F/4E/4_E/4 | %30
!pp! =D/4=G/4=A/4^A/4 B/4^B/4c/4=d/4) (=c/4d/4b/4=a/4) | %31
 (B/4=d/4=a/4=g/4)!<(! (=A/4=c/4e/4_e/4 d/4f/4a/4=c'/4!<)! | %32
!f! !>!e'/4)(=d'/4b/4=g/4 e/4=d/4B/4=G/4) (!>!e'/4d'/4b/4f/4 | %33
 e/4=d/4B/4F/4) (!>!e'/4=d'/4b/4g/4 =f/4d/4c/4=c/4 | %34
 B/4^B/4c/4=d/4) (A/4!>(!=B/4c/4d/4) (=A/4B/4c/4d/4)!>)! | %35
 (G/4=A/4^A/4B/4) (=G/4B/4)(F/4B/4) (^E/4F/4G/4^G/4 | %36
!p! F/4)(F/4A/4c/4 f/4c/4A/4F/4 A/4)(A/4c/4f/4 | %37
"_cresc." a/4f/4c/4A/4 c/4)(c/4f/4a/4 c'/4a/4f/4c/4 | %38
 e/4)(f/4a/4c'/4 e'/4d'/4c'/4b/4 a/4g/4f/4^e/4 | g/4!<(!f/4e/4d/4 c/4B/4A/4G/4 F/4^^F/4G/4A/4!<)! | %40
!f! B/4)(B/4d/4f/4 b/4d/4f/4b/4 a/4d/4f/4a/4 | g/4B/4d/4f/4 ^e/4f/4g/4f/4 d/4B/4A/4G/4 | %42
 F/4)(B/4d/4f/4 b/4d/4f/4b/4 a/4d/4f/4a/4 | g/4B/4d/4f/4 ^e/4f/4g/4f/4 d/4f/4b/4c'/4 | %44
 d'/4)(b/4a/4g/4 f/4d/4B/4F/4) .^^c'/4(a/4g/4f/4) | %45
 .d'/4(b/4c'/4b/4) .e'/4(b/4c'/4b/4) .f'/4(b/4c'/4b/4) | %46
 .^^f'/4(d'/4c'/4b/4 a/4b/4c'/4b/4) .g'/4(e'/4c'/4b/4 | a/4b/4c'/4b/4) (g/4e/4c/4G/4 E/4G/4c/4d/4 | %48
 e/4)(f/4a/4c'/4 e'/4d'/4c'/4b/4 a/4g/4f/4e/4 | d/4)(d/4f/4b/4) .a/4(c/4e/4a/4) .g/4(B/4c/4d/4 | %50
 e/4)(f/4g/4!>(!f/4 e/4c/4A/4F/4 G/4F/4=F/4E/4) | %51
 .D/4(D/4F/4B/4) .E/4(E/4G/4!>)!c/4) .F/4(F/4=A/4d/4) | %52
!p! .=A/4(A/4B/4f/4!<(! e/4)(B/4c/4B/4 A/4G/4F/4E/4)!<)! | %53
!p! .B/4!<(!(B/4c/4g/4 f/4)(c/4d/4c/4 B/4A/4!<)!G/4F/4) | %54
!mf! .e/4(e/4f/4c'/4) .d/4(d/4f/4b/4)!>(! .=d/4(d/4f/4b/4) | %55
 .B/4(B/4=d/4=g/4) .=G/4(G/4B/4d/4) .G/4!>)!(G/4B/4e/4) | %56
!p! .F/4(F/4B/4!<(!d/4 f/4)(B/4d/4f/4 b/4)(d/4f/4b/4 | %57
 d'/4)(f/4b/4d'/4!<)! f'/4e'/4d'/4c'/4"_cresc." b/4a/4g/4f/4 | %58
 ^e/4)(f/4g/4f/4 =e/4d/4c/4B/4 A/4G/4F/4^E/4 |!<(! G/4F/4)(e/4d/4 c/4^B/4c/4d/4 e/4f/4g/4a/4!<)! | %60
!f! b/4)(B/4d/4f/4 b/4f/4d/4B/4 a/4f/4d/4B/4 | g/4B/4d/4g/4 f/4d/4B/4F/4 D/4F/4B/4d/4 | %62
 f/4)(B/4d/4f/4 b/4f/4d/4B/4 a/4f/4d/4B/4 | g/4B/4d/4g/4 f/4d/4B/4F/4 D/4F/4B/4c/4 | %64
 d/4)(B/4A/4G/4 F/4B/4d/4e/4 f/4)(d/4c/4B/4 | A/4B/4d/4f/4 b/4)(f/4d/4B/4) .d'/4(b/4f/4d/4) | %66
 .f'/4(d'/4b/4f/4 d/4B/4F/4D/4 F/4B/4d/4f/4 | b/4d'/4)(f'/4d'/4 b/4f/4d/4B/4 d/4f/4b/4d'/4) | (B3 | %69
!f! b) z z |] %70

